Hatter-kde/actions/16/document-compareright.svg

<svg xmlns="http://www.w3.org/2000/svg" viewBox="0 0 16 16">
  <defs id="defs3051">
    <style type="text/css" id="current-color-scheme">
      .ColorScheme-Highlight {
        color:#3daee9;
      }
      </style>
  </defs>
  <path 
     style="fill:currentColor;fill-opacity:1;stroke:none" 
     d="M 9 2 L 7 3.5 L 9 5 L 9 4 L 10 4 C 10.552 4 11 4.448 11 5 L 11 11.087891 C 10.401411 11.299528 10.000895 11.865099 10 12.5 C 10.000008 13.328424 10.671576 13.999992 11.5 14 C 12.328424 13.999992 12.999992 13.328424 13 12.5 C 12.999105 11.865099 12.598589 11.299528 12 11.087891 L 12 5 C 12 3.895 11.105 3 10 3 L 9 3 L 9 2 z M 11.5 12 C 11.776142 12 12 12.223858 12 12.5 C 12 12.776142 11.776142 13 11.5 13 C 11.223858 13 11 12.776142 11 12.5 C 11 12.223858 11.223858 12 11.5 12 z "
     class="ColorScheme-Highlight"/>
</svg>

<?xml version="1.0" encoding="UTF-8"?>
<svg viewBox="0 0 16 16" xmlns="http://www.w3.org/2000/svg">
 <defs id="defs3051">
  <style id="current-color-scheme" type="text/css">.ColorScheme-Highlight {
        color:#3daee9;
      }</style>
 </defs>
 <path class="ColorScheme-Highlight" d="m9 2-2 1.5 2 1.5v-1h1c0.552 0 1 0.448 1 1v6.0879c-0.59859 0.21164-0.9991 0.77721-1 1.4121 8e-6 0.82842 0.67158 1.5 1.5 1.5 0.82842-8e-6 1.5-0.67158 1.5-1.5-8.95e-4 -0.6349-0.40141-1.2005-1-1.4121v-6.0879c0-1.105-0.895-2-2-2h-1v-1zm2.5 10c0.27614 0 0.5 0.22386 0.5 0.5s-0.22386 0.5-0.5 0.5-0.5-0.22386-0.5-0.5 0.22386-0.5 0.5-0.5z" fill="currentColor"/>
</svg>
